SVG_Azure_All/Data Lake Storage Gen1.svg

<?xml version="1.0" encoding="UTF-8" standalone="no"?>
<!-- Generated by Microsoft Visio, SVG Export Data Lake Storage Gen1.svg Page-1 -->

<svg
   xmlns:dc="http://purl.org/dc/elements/1.1/"
   xmlns:cc="http://creativecommons.org/ns#"
   xmlns:rdf="http://www.w3.org/1999/02/22-rdf-syntax-ns#"
   xmlns:svg="http://www.w3.org/2000/svg"
   xmlns="http://www.w3.org/2000/svg"
   xmlns:sodipodi="http://sodipodi.sourceforge.net/DTD/sodipodi-0.dtd"
   xmlns:inkscape="http://www.inkscape.org/namespaces/inkscape"
   width="0.78738803in"
   height="0.62985998in"
   viewBox="0 0 56.6921 45.350016"
   xml:space="preserve"
   class="st5"
   version="1.1"
   id="svg53"
   sodipodi:docname="Data Lake Storage Gen1.svg"
   style="font-size:12px;overflow:visible;color-interpolation-filters:sRGB;fill:none;fill-rule:evenodd;stroke-linecap:square;stroke-miterlimit:3"
   inkscape:version="0.92.5 (2060ec1f9f, 2020-04-08)"><metadata
   id="metadata57"><rdf:RDF><cc:Work
       rdf:about=""><dc:format>image/svg+xml</dc:format><dc:type
         rdf:resource="http://purl.org/dc/dcmitype/StillImage" /></cc:Work></rdf:RDF></metadata><sodipodi:namedview
   pagecolor="#ffffff"
   bordercolor="#666666"
   borderopacity="1"
   objecttolerance="10"
   gridtolerance="10"
   guidetolerance="10"
   inkscape:pageopacity="0"
   inkscape:pageshadow="2"
   inkscape:window-width="640"
   inkscape:window-height="480"
   id="namedview55"
   showgrid="false"
   inkscape:zoom="1.5612629"
   inkscape:cx="37.796549"
   inkscape:cy="30.225627"
   inkscape:window-x="0"
   inkscape:window-y="0"
   inkscape:window-maximized="0"
   inkscape:current-layer="svg53" />
	<style
   type="text/css"
   id="style2">
	<![CDATA[
		.st1 {fill:#005ba1;stroke:none;stroke-linecap:butt;stroke-width:34}
		.st2 {fill:#ffffff;stroke:none;stroke-linecap:butt;stroke-width:34}
		.st3 {fill:#1ac3f2;stroke:none;stroke-linecap:butt;stroke-width:34}
		.st4 {fill:url(#grad0-12);stroke:none;stroke-linecap:butt;stroke-width:34}
		.st5 {fill:none;fill-rule:evenodd;font-size:12px;overflow:visible;stroke-linecap:square;stroke-miterlimit:3}
	]]>
	</style>

	<defs
   id="Patterns_And_Gradients">
		<linearGradient
   id="grad0-12"
   x1="-2.89382e-06"
   y1="86.755017"
   x2="47.775052"
   y2="86.755017"
   gradientTransform="scale(1.1866461,0.84271121)"
   gradientUnits="userSpaceOnUse">
			<stop
   offset="0"
   stop-color="#32d4f5"
   stop-opacity="1"
   id="stop4" />
			<stop
   offset="0.23"
   stop-color="#31d0f1"
   stop-opacity="1"
   id="stop6" />
			<stop
   offset="0.46"
   stop-color="#2cc3e6"
   stop-opacity="1"
   id="stop8" />
			<stop
   offset="0.7"
   stop-color="#25afd4"
   stop-opacity="1"
   id="stop10" />
			<stop
   offset="0.94"
   stop-color="#1c92ba"
   stop-opacity="1"
   id="stop12" />
			<stop
   offset="1"
   stop-color="#198ab3"
   stop-opacity="1"
   id="stop14" />
		</linearGradient>
	</defs>
	<g
   id="g51"
   transform="translate(-33.999997,-34.004267)">
		<title
   id="title18">Page-1</title>
		<g
   id="group5847-1"
   transform="translate(34,-34.0157)">
			<title
   id="title20">Data Lake Storage Gen1</title>
			<g
   id="group5848-2">
				<title
   id="title22">Icon-analytics-150</title>
				<g
   id="shape5849-3">
					<title
   id="title24">Sheet.5849</title>
					<path
   d="M 55.36,73.05 H 30.65 A 1.13386,1.11099 0 0 1 29.91,72.82 L 22.84,68.21 A 1.434,1.40507 -180 0 0 22.11,68.02 H 1.33 A 1.33395,1.30704 -180 0 0 0,69.29 v 42.81 a 1.33395,1.30704 -180 0 0 1.33,1.27 h 54.03 a 1.33395,1.30704 -180 0 0 1.33,-1.27 V 74.35 a 1.33395,1.30704 -180 0 0 -1.33,-1.3 z"
   class="st1"
   id="path26"
   inkscape:connector-curvature="0"
   style="fill:#005ba1;stroke:none;stroke-width:34;stroke-linecap:butt" />
				</g>
				<g
   id="shape5850-5"
   transform="translate(5.16906,-40.3549)">
					<title
   id="title29">Sheet.5850</title>
					<path
   d="m 0,112.85 a 0.533593,0.522829 -180 0 0 0.53358,0.52282 L 12.34,113.37 a 0.533593,0.522829 -180 0 0 0.53358,-0.52282 L 12.87,111.38 a 0.533593,0.522829 -180 0 0 -0.53358,-0.52282 L 0.53,110.85 a 0.533593,0.522829 -180 0 0 -0.53358,0.52282 z"
   class="st2"
   id="path31"
   inkscape:connector-curvature="0"
   style="fill:#ffffff;stroke:none;stroke-width:34;stroke-linecap:butt" />
				</g>
				<g
   id="shape5851-7"
   transform="translate(5.16906,-40.3549)">
					<title
   id="title34">Sheet.5851</title>
					<path
   d="m 0,113.01 a 0.366845,0.359445 -180 0 0 0.366836,0.35944 L 2.2,113.37 a 0.366845,0.359445 -180 0 0 0.366836,-0.35944 L 2.57,111.21 A 0.366845,0.359445 -180 0 0 2.203164,110.85056 L 0.37,110.85 a 0.366845,0.359445 -180 0 0 -0.366836,0.35944 z"
   class="st3"
   id="path36"
   inkscape:connector-curvature="0"
   style="fill:#1ac3f2;stroke:none;stroke-width:34;stroke-linecap:butt" />
				</g>
				<g
   id="shape5852-9"
   transform="translate(0,-0.130704)">
					<title
   id="title39">Sheet.5852</title>
					<path
   d="M 55.36,73.11 H 28.35 a 1.20056,1.17634 -180 0 0 -0.94,0.4 l -4.5,4.24 a 1.434,1.40507 0 0 1 -0.93,0.36 H 1.33 A 1.33395,1.30704 -180 0 0 0,79.42 v 32.68 a 1.33395,1.30704 -180 0 0 1.33,1.27 h 54.03 a 1.33395,1.30704 -180 0 0 1.33,-1.27 V 74.49 a 1.33395,1.30704 -180 0 0 -1.33,-1.38 z"
   class="st4"
   id="path41"
   inkscape:connector-curvature="0"
   style="fill:url(#grad0-12);stroke:none;stroke-width:34;stroke-linecap:butt" />
				</g>
				<g
   id="shape5853-13"
   transform="translate(20.9716,-7.69088)">
					<title
   id="title44">Sheet.5853</title>
					<path
   d="m 11.31,87.6 a 0.500232,0.49014 -180 0 0 -0.26679,0 C 11.04,87.6 10.74,87.6 10.61,87.83 l -10.54,15 a 0.53358,0.522816 -180 0 0 0,0.52282 0.633627,0.620845 -180 0 0 0.500232,0.32676 L 6.81,103.68 4.04,112.76 a 0.433534,0.424788 -180 0 0 0.233441,0.58817 0.333488,0.32676 -180 0 0 0.233441,0 C 4.71,113.35 4.81,113.35 4.94,113.12 L 15.81,97.89 V 97.57 A 0.566929,0.555493 -180 0 0 15.243071,97.047184 L 8.58,97.04 l 2.7,-8.92 a 0.433534,0.424788 -180 0 0 0.03335,-0.522816 z"
   class="st2"
   id="path46"
   inkscape:connector-curvature="0"
   style="fill:#ffffff;stroke:none;stroke-width:34;stroke-linecap:butt" />
				</g>
			</g>
		</g>
	</g>
</svg>

<?xml version="1.0" encoding="UTF-8" standalone="no"?>
<!DOCTYPE svg PUBLIC "-//W3C//DTD SVG 1.1//EN" "http://www.w3.org/Graphics/SVG/1.1/DTD/svg11.dtd">
<!-- Generated by Microsoft Visio, SVG Export Data Lake Storage Gen1.svg Page-1 -->
<svg xmlns="http://www.w3.org/2000/svg" xmlns:xlink="http://www.w3.org/1999/xlink" xmlns:ev="http://www.w3.org/2001/xml-events"
		width="1.73187in" height="1.57458in" viewBox="0 0 124.695 113.37" xml:space="preserve" color-interpolation-filters="sRGB"
		class="st5">
	<style type="text/css">
	<![CDATA[
		.st1 {fill:#005ba1;stroke:none;stroke-linecap:butt;stroke-width:34}
		.st2 {fill:#ffffff;stroke:none;stroke-linecap:butt;stroke-width:34}
		.st3 {fill:#1ac3f2;stroke:none;stroke-linecap:butt;stroke-width:34}
		.st4 {fill:url(#grad0-12);stroke:none;stroke-linecap:butt;stroke-width:34}
		.st5 {fill:none;fill-rule:evenodd;font-size:12px;overflow:visible;stroke-linecap:square;stroke-miterlimit:3}
	]]>
	</style>

	<defs id="Patterns_And_Gradients">
		<linearGradient id="grad0-12" x1="0" y1="0" x2="1" y2="0" gradientTransform="rotate(91.040618821164 0.5 0.5)">
			<stop offset="0" stop-color="#32d4f5" stop-opacity="1"/>
			<stop offset="0.23" stop-color="#31d0f1" stop-opacity="1"/>
			<stop offset="0.46" stop-color="#2cc3e6" stop-opacity="1"/>
			<stop offset="0.7" stop-color="#25afd4" stop-opacity="1"/>
			<stop offset="0.94" stop-color="#1c92ba" stop-opacity="1"/>
			<stop offset="1" stop-color="#198ab3" stop-opacity="1"/>
		</linearGradient>
	</defs>
	<g>
		<title>Page-1</title>
		<g id="group5728-1" transform="translate(34,-34.0157)">
			<title>Data Lake Storage Gen1</title>
			<g id="group5729-2">
				<title>Icon-analytics-150</title>
				<g id="shape5730-3">
					<title>Sheet.5730</title>
					<path d="M55.36 73.05 L30.65 73.05 A1.13386 1.11099 0 0 1 29.91 72.82 L22.84 68.21 A1.434 1.40507 -180 0 0 22.11
								 68.02 L1.33 68.02 A1.33395 1.30704 -180 0 0 0 69.29 L0 112.1 A1.33395 1.30704 -180 0 0 1.33 113.37
								 L55.36 113.37 A1.33395 1.30704 -180 0 0 56.69 112.1 L56.69 74.35 A1.33395 1.30704 -180 0 0 55.36
								 73.05 Z" class="st1"/>
				</g>
				<g id="shape5731-5" transform="translate(5.16906,-40.3549)">
					<title>Sheet.5731</title>
					<path d="M0 112.85 a0.533593 0.522829 -180 0 0 0.53358 0.522816 L12.34 113.37 a0.533593 0.522829 -180 0 0 0.53358
								 -0.522816 L12.87 111.38 a0.533593 0.522829 -180 0 0 -0.53358 -0.522816 L0.53 110.85 a0.533593 0.522829
								 -180 0 0 -0.53358 0.522816 L0 112.85 Z" class="st2"/>
				</g>
				<g id="shape5732-7" transform="translate(5.16906,-40.3549)">
					<title>Sheet.5732</title>
					<path d="M0 113.01 a0.366845 0.359445 -180 0 0 0.366836 0.359436 L2.2 113.37 a0.366845 0.359445 -180 0 0 0.366836
								 -0.359436 L2.57 111.21 a0.366845 0.359445 -180 0 0 -0.366836 -0.359436 L0.37 110.85 a0.366845 0.359445
								 -180 0 0 -0.366836 0.359436 L0 113.01 Z" class="st3"/>
				</g>
				<g id="shape5733-9" transform="translate(0,-0.130704)">
					<title>Sheet.5733</title>
					<path d="M55.36 73.11 L28.35 73.11 A1.20056 1.17634 -180 0 0 27.41 73.51 L22.91 77.75 A1.434 1.40507 0 0 1 21.98
								 78.11 L1.33 78.11 A1.33395 1.30704 -180 0 0 -0 79.42 L0 112.1 A1.33395 1.30704 -180 0 0 1.33 113.37
								 L55.36 113.37 A1.33395 1.30704 -180 0 0 56.69 112.1 L56.69 74.49 A1.33395 1.30704 -180 0 0 55.36
								 73.11 Z" class="st4"/>
				</g>
				<g id="shape5734-13" transform="translate(20.9716,-7.69088)">
					<title>Sheet.5734</title>
					<path d="M11.31 87.6 a0.500232 0.49014 -180 0 0 -0.26679 -1.42109E-14 C11.04 87.6 10.74 87.6 10.61 87.83 L0.07
								 102.83 a0.53358 0.522816 -180 0 0 -7.16094E-15 0.522816 a0.633627 0.620845 -180 0 0 0.500232 0.32676
								 L6.81 103.68 L4.04 112.76 a0.433534 0.424788 -180 0 0 0.233441 0.588169 a0.333488 0.32676 -180 0
								 0 0.233441 0 C4.71 113.35 4.81 113.35 4.94 113.12 L15.81 97.89 L15.81 97.57 a0.566929 0.555493 -180
								 0 0 -0.566929 -0.522816 L8.58 97.04 L11.28 88.12 a0.433534 0.424788 -180 0 0 0.0333488 -0.522816
								 Z" class="st2"/>
				</g>
			</g>
		</g>
	</g>
</svg>
